packages/elvis-assets-icons/icons/svg/src/information_circle-filled-color.svg

<svg width="24" height="24" fill="none" xmlns="http://www.w3.org/2000/svg"><path d="M12 24C5.383 24 0 18.617 0 12S5.383 0 12 0s12 5.383 12 12-5.383 12-12 12z" fill="#29D305"/><path d="M13.5 17.25A2.252 2.252 0 0111.25 15v-3.75h-.75a.75.75 0 010-1.5h.75c.827 0 1.5.673 1.5 1.5V15c0 .414.336.75.75.75h.75a.75.75 0 010 1.5h-.75zM11.625 8.25a1.125 1.125 0 100-2.25 1.125 1.125 0 000 2.25z" fill="#000"/></svg>

<svg width="24" height="24" viewBox="0 0 24 24" fill="none" xmlns="http://www.w3.org/2000/svg">
<path d="M12 24C5.383 24 0 18.617 0 12C0 5.383 5.383 0 12 0C18.617 0 24 5.383 24 12C24 18.617 18.617 24 12 24Z" fill="#29D305"/>
<path d="M13.5 17.25C12.259 17.25 11.25 16.241 11.25 15V11.25H10.5C10.086 11.25 9.75 10.914 9.75 10.5C9.75 10.086 10.086 9.75 10.5 9.75H11.25C12.077 9.75 12.75 10.423 12.75 11.25V15C12.75 15.414 13.086 15.75 13.5 15.75H14.25C14.664 15.75 15 16.086 15 16.5C15 16.914 14.664 17.25 14.25 17.25H13.5Z" fill="black"/>
<path d="M11.625 8.25C12.2463 8.25 12.75 7.74632 12.75 7.125C12.75 6.50368 12.2463 6 11.625 6C11.0037 6 10.5 6.50368 10.5 7.125C10.5 7.74632 11.0037 8.25 11.625 8.25Z" fill="black"/>
</svg>
